svg/church-center/bank-check.svg

<svg width="16" height="16" viewBox="0 0 16 16" fill="none" xmlns="http://www.w3.org/2000/svg">
<path d="M16 6.32265V12.9301C16 13.0772 15.971 13.2229 15.9146 13.3589C15.8583 13.4948 15.7757 13.6183 15.6716 13.7223C15.5675 13.8263 15.4439 13.9088 15.3079 13.965C15.1719 14.0212 15.0262 14.0501 14.879 14.05H1.12101C0.973842 14.0501 0.828094 14.0212 0.692094 13.965C0.556094 13.9088 0.432508 13.8263 0.328401 13.7223C0.224293 13.6183 0.141705 13.4948 0.0853576 13.3589C0.0290098 13.2229 7.07847e-06 13.0772 7.13713e-06 12.9301V6.32465C-0.000519353 6.17712 0.0280876 6.03093 0.0841873 5.89447C0.140287 5.75802 0.222776 5.63398 0.326923 5.52947C0.43107 5.42496 0.554826 5.34204 0.691093 5.28546C0.82736 5.22888 0.973458 5.19975 1.12101 5.19975H5.33L8.076 7.9505H2.62401C2.58932 7.95075 2.55608 7.96443 2.53128 7.98867C2.50648 8.01291 2.49204 8.04583 2.49101 8.08049V8.75043C2.49101 8.7857 2.50502 8.81953 2.52996 8.84447C2.5549 8.86941 2.58873 8.88342 2.62401 8.88342H9.013L10.813 10.6833H2.62401C2.58864 10.6835 2.55481 10.6978 2.5299 10.7229C2.50499 10.748 2.491 10.7819 2.49101 10.8172V11.4472C2.49127 11.4824 2.50536 11.5161 2.53025 11.5409C2.55514 11.5658 2.58881 11.5799 2.62401 11.5802H14.437C14.5407 11.5802 14.6402 11.539 14.7135 11.4657C14.7868 11.3923 14.828 11.2929 14.828 11.1892V11.1892V8.95841C14.8283 8.80015 14.7972 8.6434 14.7366 8.49719C14.676 8.35098 14.5871 8.2182 14.475 8.10649L11.575 5.20675H14.884C15.1796 5.20807 15.4627 5.32606 15.6717 5.53505C15.8807 5.74403 15.9987 6.0271 16 6.32265ZM8.834 3.71489L6.961 5.58772L11.978 10.5993C12.0074 10.6303 12.0427 10.6552 12.0819 10.6723C12.121 10.6895 12.1632 10.6987 12.206 10.6993H13.758C13.8076 10.6993 13.8552 10.6796 13.8902 10.6445C13.9253 10.6094 13.945 10.5619 13.945 10.5123V8.96141C13.9451 8.9191 13.9368 8.87719 13.9207 8.83807C13.9046 8.79895 13.8809 8.76339 13.851 8.73343L8.834 3.71489ZM5.405 3.01495C5.27078 3.14953 5.19541 3.33184 5.19541 3.52191C5.19541 3.71197 5.27078 3.89428 5.405 4.02886L6.417 5.04077L8.288 3.16994L7.277 2.15903C7.14245 2.02512 6.96034 1.94995 6.7705 1.94995C6.58067 1.94995 6.39856 2.02512 6.264 2.15903L5.405 3.01495Z" fill="black"/>
</svg>

<svg id="Layer_1" data-name="Layer 1" xmlns="http://www.w3.org/2000/svg" viewBox="0 0 16 16"><title>bank-check</title><path d="M16,6.323v6.608a1.12,1.12,0,0,1-1.121,1.12H1.121A1.12,1.12,0,0,1,0,12.931V6.325H0v0A1.121,1.121,0,0,1,1.121,5.2H5.33L8.076,7.951H2.624a.134.134,0,0,0-.133.13v.67a.133.133,0,0,0,.133.133H9.013l1.8,1.8H2.624a.134.134,0,0,0-.133.134v.63a.134.134,0,0,0,.133.133H14.437a.391.391,0,0,0,.391-.391h0V8.959a1.2,1.2,0,0,0-.353-.852l-2.9-2.9h3.309A1.121,1.121,0,0,1,16,6.323ZM8.834,3.715,6.961,5.588,11.978,10.6h0a.32.32,0,0,0,.228.1h1.552a.187.187,0,0,0,.187-.187h0V8.962a.322.322,0,0,0-.094-.228Zm-3.429-.7a.718.718,0,0,0,0,1.014L6.417,5.041,8.288,3.17,7.277,2.159h0a.718.718,0,0,0-1.013,0Z"/></svg>
